X:292
T:Bavarian Air. JaW.292
M:3/4
L:1/8
Q:3/4=50
S:James Winder Ms, Lancashire, 1835-41
R:.Waltz
O:England
A:Wyresdale,Lancashire
Z:vmp.Chris Partington, Aug 2004
K:F
F>F A>A c>c|(a2f2) f>f|(g2b2) e>e|f2a2 A>G|!
F>F A>A c>c|a2f2 f>f|g2b2e2|f4||!
f>f|e2g2 f>e|(f2a2) f>f|e2g2 f>e|”sic”f2b2A>G|!
|F>F A>A c>c|a2f2 f>f|g2b2e2|f6|]

